X: 766
P: Longways for as many as will
M: 6/8
L: 1/8
K: G
V: 1
dcB edc | fed gfe | d^cd AGA | D3- D2 |]
d |\
dcB cBA | e2E E2B | cde EFG | ABc F2A |\
d2c Bcd | efg f2e | gdg A2G | G3- G2 |]
V: 2 clef=bass middle=d
z | G3 g3 | f3 g3 | c3 B2G | F3 G2A |\
z |\
f3 g3 | c2A d2c | B2e d2D | G3- G2 |]

